public/images/broadcasters/rtbf.svg

<svg clip-rule="evenodd" fill-rule="evenodd" stroke-linejoin="round" stroke-miterlimit="2" viewBox="0 0 3508 877" xmlns="http://www.w3.org/2000/svg"><g fill="#fff" fill-rule="nonzero" transform="matrix(8.71757695 0 0 8.71757695 1261.197824 278.606247)"><path d="m36.381 52.394c-1.869-1.734-3.942-2.721-6.681-2.721l-53.916.006h-.039l-.038.006c-1.623.422-3.621-.8-5.265-1.792-1.378-1.187-1.988-2.837-1.988-5v-34.711l61.192.004c2.003 0 4.31-.274 6.438-2.239 1.754-1.863 2.639-3.947 2.639-6.619 0-2.535-.895-4.774-2.8-6.548-1.771-1.905-4.01-2.798-6.546-2.798h-60.922l.001-12.577c0-2.484-1.002-4.682-2.725-6.434-1.73-1.886-3.947-2.768-6.487-2.768-2.535 0-4.772.894-6.679 2.802-1.907 1.771-2.798 4.009-2.798 6.678v73.006c0 11.713 5.615 17.346 17.285 17.346l62.918-.007c2.486 0 4.554-1.002 6.438-2.725 1.756-1.73 2.771-3.948 2.771-6.353 0-2.622-.866-4.489-2.798-6.556z"/><path d="m87.782-9.969c-2.221 0-4.628.268-6.572 2.182-1.755 1.73-2.638 3.946-2.638 6.486 0 2.535.894 4.773 2.799 6.679 1.774 1.773 4.012 2.8 6.548 2.8l1.391.006h33.769c2.215 0 3.902.595 5.245 1.938 1.209 1.21 1.936 2.875 1.936 5.044l.051 27.742c0 2.157-.611 3.806-1.986 4.991-1.391 1.199-3.239 1.789-5.331 1.789h-44.668c-2.275 0-4.143-.59-5.532-1.789-1.377-1.185-1.988-2.83-1.988-4.993l-.052-65.655c0-2.353-1.001-4.554-2.725-6.437-1.731-1.757-3.946-2.773-6.487-2.773-2.534 0-4.772 1.026-6.678 2.931-1.907 1.776-2.799 4.012-2.799 6.549v73.039c0 11.447 5.921 17.479 17.678 17.479l61.396.014c11.625 0 17.679-5.741 17.679-17.398v-43.538c0-11.27-5.63-16.857-17.327-17.065z"/><path d="m254.943 6.022c1.755-1.729 2.774-3.945 2.774-6.485 0-2.537-1.028-4.774-2.8-6.679-2.076-1.943-4.312-2.856-6.681-2.856l-68.698.005c-11.3.263-17.221 5.936-16.911 17.065l-.469 52.439c0 2.363 1.014 4.572 2.767 6.326s3.952 2.77 6.311 2.77c2.667 0 4.895-1.016 6.649-2.77 2.052-1.799 2.821-4.007 2.821-6.329l.342-46.788c0-3.043 1.279-4.512 4.091-4.512l63.239-.003c2.217.001 4.49-.27 6.565-2.183z"/><path d="m-64.984-7.405c-1.715-1.717-3.922-2.564-6.679-2.564-17.415-.018-34.966.041-52.38-.027-1.355-.023-2.183-.526-2.989-1.64-1.698-2.473-5.343-3.327-8.165-3.327-2.804 0-5.353 1.124-7.268 3.124-1.858 1.944-2.183 4.086-2.183 6.588l-.026 64.256c0 2.356.894 4.57 2.8 6.342 1.904 2.035 4.14 2.799 6.677 2.799s4.752-.74 6.481-2.468c1.86-1.993 2.731-3.942 2.731-6.612v-43.806c0-2.078.642-3.986 1.987-5.144 1.372-1.315 3.085-1.904 5.325-1.92h47.279c2.765 0 4.9-.791 6.438-2.436 1.888-1.729 2.772-3.946 2.772-6.485s-.894-4.772-2.8-6.68z"/><path d="m234.947 33.804v-.007c0-2.793-1.093-5.357-2.999-7.154-2.128-1.885-4.498-2.766-7.604-2.766h-17.898c-2.841 0-5.213.881-7.342 2.766-2.164 1.797-3.26 4.361-3.26 7.154v.007c0 2.792 1.094 5.101 3.26 6.887 2.129 1.753 4.501 2.77 7.342 2.77h17.898c3.106 0 5.476-1.017 7.604-2.77 1.902-1.786 2.999-4.095 2.999-6.887z"/></g></svg>

<svg viewBox="0 0 3508 877" xmlns="http://www.w3.org/2000/svg" xml:space="preserve" style="fill-rule:evenodd;clip-rule:evenodd;stroke-linejoin:round;stroke-miterlimit:2;"><title>Radio-Télévision belge de la Communauté française</title>
    <g transform="matrix(3.00129,0,0,3.00129,-4457.13,-447.862)">
        <g transform="matrix(2.90461,0,0,2.90461,1905.29,242.052)">
            <path d="M36.381,52.394C34.512,50.66 32.439,49.673 29.7,49.673L-24.216,49.679L-24.255,49.679L-24.293,49.685C-25.916,50.107 -27.914,48.885 -29.558,47.893C-30.936,46.706 -31.546,45.056 -31.546,42.893L-31.546,8.182L29.646,8.186C31.649,8.186 33.956,7.912 36.084,5.947C37.838,4.084 38.723,2 38.723,-0.672C38.723,-3.207 37.828,-5.446 35.923,-7.22C34.152,-9.125 31.913,-10.018 29.377,-10.018L-31.545,-10.018L-31.544,-22.595C-31.544,-25.079 -32.546,-27.277 -34.269,-29.029C-35.999,-30.915 -38.216,-31.797 -40.756,-31.797C-43.291,-31.797 -45.528,-30.903 -47.435,-28.995C-49.342,-27.224 -50.233,-24.986 -50.233,-22.317L-50.233,50.689C-50.233,62.402 -44.618,68.035 -32.948,68.035L29.97,68.028C32.456,68.028 34.524,67.026 36.408,65.303C38.164,63.573 39.179,61.355 39.179,58.95C39.179,56.328 38.313,54.461 36.381,52.394Z" style="fill:white;fill-rule:nonzero;"/>
        </g>
        <g transform="matrix(2.90461,0,0,2.90461,1905.29,242.052)">
            <path d="M87.782,-9.969C85.561,-9.969 83.154,-9.701 81.21,-7.787C79.455,-6.057 78.572,-3.841 78.572,-1.301C78.572,1.234 79.466,3.472 81.371,5.378C83.145,7.151 85.383,8.178 87.919,8.178L89.31,8.184L123.079,8.184C125.294,8.184 126.981,8.779 128.324,10.122C129.533,11.332 130.26,12.997 130.26,15.166L130.311,42.908C130.311,45.065 129.7,46.714 128.325,47.899C126.934,49.098 125.086,49.688 122.994,49.688L78.326,49.688C76.051,49.688 74.183,49.098 72.794,47.899C71.417,46.714 70.806,45.069 70.806,42.906L70.754,-22.749C70.754,-25.102 69.753,-27.303 68.029,-29.186C66.298,-30.943 64.083,-31.959 61.542,-31.959C59.008,-31.959 56.77,-30.933 54.864,-29.028C52.957,-27.252 52.065,-25.016 52.065,-22.479L52.065,50.56C52.065,62.007 57.986,68.039 69.743,68.039L131.139,68.053C142.764,68.053 148.818,62.312 148.818,50.655L148.818,7.117C148.818,-4.153 143.188,-9.74 131.491,-9.948L87.782,-9.969Z" style="fill:white;fill-rule:nonzero;"/>
        </g>
        <g transform="matrix(2.90461,0,0,2.90461,1905.29,242.052)">
            <path d="M254.943,6.022C256.698,4.293 257.717,2.077 257.717,-0.463C257.717,-3 256.689,-5.237 254.917,-7.142C252.841,-9.085 250.605,-9.998 248.236,-9.998L179.538,-9.993C168.238,-9.73 162.317,-4.057 162.627,7.072L162.158,59.511C162.158,61.874 163.172,64.083 164.925,65.837C166.678,67.591 168.877,68.607 171.236,68.607C173.903,68.607 176.131,67.591 177.885,65.837C179.937,64.038 180.706,61.83 180.706,59.508L181.048,12.72C181.048,9.677 182.327,8.208 185.139,8.208L248.378,8.205C250.595,8.206 252.868,7.935 254.943,6.022Z" style="fill:white;fill-rule:nonzero;"/>
        </g>
        <g transform="matrix(2.90461,0,0,2.90461,1905.29,242.052)">
            <path d="M-64.984,-7.405C-66.699,-9.122 -68.906,-9.969 -71.663,-9.969C-89.078,-9.987 -106.629,-9.928 -124.043,-9.996C-125.398,-10.019 -126.226,-10.522 -127.032,-11.636C-128.73,-14.109 -132.375,-14.963 -135.197,-14.963C-138.001,-14.963 -140.55,-13.839 -142.465,-11.839C-144.323,-9.895 -144.648,-7.753 -144.648,-5.251L-144.674,59.005C-144.674,61.361 -143.78,63.575 -141.874,65.347C-139.97,67.382 -137.734,68.146 -135.197,68.146C-132.66,68.146 -130.445,67.406 -128.716,65.678C-126.856,63.685 -125.985,61.736 -125.985,59.066L-125.985,15.26C-125.985,13.182 -125.343,11.274 -123.998,10.116C-122.626,8.801 -120.913,8.212 -118.673,8.196L-71.394,8.196C-68.629,8.196 -66.494,7.405 -64.956,5.76C-63.068,4.031 -62.184,1.814 -62.184,-0.725C-62.184,-3.264 -63.078,-5.497 -64.984,-7.405Z" style="fill:white;fill-rule:nonzero;"/>
        </g>
        <g transform="matrix(2.90461,0,0,2.90461,1905.29,242.052)">
            <path d="M234.947,33.804L234.947,33.797C234.947,31.004 233.854,28.44 231.948,26.643C229.82,24.758 227.45,23.877 224.344,23.877L206.446,23.877C203.605,23.877 201.233,24.758 199.104,26.643C196.94,28.44 195.844,31.004 195.844,33.797L195.844,33.804C195.844,36.596 196.938,38.905 199.104,40.691C201.233,42.444 203.605,43.461 206.446,43.461L224.344,43.461C227.45,43.461 229.82,42.444 231.948,40.691C233.85,38.905 234.947,36.596 234.947,33.804Z" style="fill:white;fill-rule:nonzero;"/>
        </g>
    </g>
</svg>
